packages/icons/svg/Fill/chat-new.svg

<svg fill="none" height="24" viewBox="0 0 24 24" width="24" xmlns="http://www.w3.org/2000/svg"><path clip-rule="evenodd" d="m18.4694 2.94631 2.4144 2.41445 1.7443-1.74701-2.4135-2.41355zm-6.4694 8.88009 2.6671-.2428 5.017-5.02246-2.4153-2.41535-5.0323 5.03228zm7 .1736c0-.552.447-1 1-1s1 .448 1 1v6c0 1.654-1.346 3-3 3h-12c-1.654 0-3-1.346-3-3v-12c0-1.654 1.346-3 3-3h6c.553 0 1 .448 1 1s-.447 1-1 1h-6c-.552 0-1 .449-1 1v12c0 .551.448 1 1 1h12c.552 0 1-.449 1-1z" fill="#6b7280" fill-rule="evenodd"/></svg>

<svg width="24" height="24" viewBox="0 0 24 24" fill="none" xmlns="http://www.w3.org/2000/svg">
<path fill-rule="evenodd" clip-rule="evenodd" d="M18.4694 2.94631L20.8838 5.36076L22.6281 3.61375L20.2146 1.2002L18.4694 2.94631ZM12 11.8264L14.6671 11.5836L19.6841 6.56114L17.2688 4.14579L12.2365 9.17807L12 11.8264ZM19 12C19 11.448 19.447 11 20 11C20.553 11 21 11.448 21 12V18C21 19.654 19.654 21 18 21H6C4.346 21 3 19.654 3 18V6C3 4.346 4.346 3 6 3H12C12.553 3 13 3.448 13 4C13 4.552 12.553 5 12 5H6C5.448 5 5 5.449 5 6V18C5 18.551 5.448 19 6 19H18C18.552 19 19 18.551 19 18V12Z" fill="#000000"/>
</svg>
